X:1
T:[ID 1-85b]
T:[ID 1-85b]
T:Bezeichnung standardisiert: Sesken Sesken
T:Urheber unbekannt Datum in der hier transkribierten schriftlichen Quelle: vermutlich vor 1767
C:Urheber unbekannt
C:Datum in der hier transkribierten schriftlichen Quelle: vermutlich vor 1767
L:1/8
M:2/2
K:G
V:1 treble 
V:1
 G2 | G2 GF G2 A2 | B2 G2 G2 g2 | f2 e2 d2 c2 | B2 AB G2 G2 | G2 GF G2 A2 | B2 G2 G2 g2 | %7
 f2 e2 d2"^\201" c2 | d6 :: !fermata!d2 | dc d2 d2 d2 | e2 c2 c2 c2 | ed e2 e2 e2 | f2 d2 d2 d2 | %14
 e2 d2 e2 f2 | g2 fe d2 c2 | B2 G2 A2 F2 | G6 :| %18

